packages/components/bolt-icons/src/svgs/pega/pega-heath-shield.svg

<svg viewBox="0 0 32 32" xmlns="http://www.w3.org/2000/svg"><path fill="#fff" d="m27.32 3.51h-1.32a14.77 14.77 0 0 1 -8.28-2.51l-1.16-.83a1 1 0 0 0 -1.12 0l-1.16.83a14.77 14.77 0 0 1 -8.28 2.51h-1.32a1 1 0 0 0 -1 1v16.66a5.06 5.06 0 0 0 2.22 4.2l9.54 6.46a1 1 0 0 0 1.12 0l9.54-6.46a5.06 5.06 0 0 0 2.22-4.2v-16.66a1 1 0 0 0 -1-1zm-1 17.66a3.07 3.07 0 0 1 -1.32 2.55l-9 6.07-9-6.07a3.07 3.07 0 0 1 -1.34-2.55v-15.66h.34a16.72 16.72 0 0 0 9.42-2.9l.6-.4.6.4a16.72 16.72 0 0 0 9.38 2.9h.3z"/><path fill="#fff" d="m22 13h-3v-3.08a1 1 0 0 0 -1-1h-4a1 1 0 0 0 -1 1v3.08h-3a1 1 0 0 0 -1 1v4a1 1 0 0 0 1 1h3v3a1 1 0 0 0 1 1h4a1 1 0 0 0 1-1v-3h3a1 1 0 0 0 1-1v-4a1 1 0 0 0 -1-1zm-1 4h-3a1 1 0 0 0 -1 1v3h-2v-3a1 1 0 0 0 -1-1h-3v-2h3a1 1 0 0 0 1-1v-3.08h2v3.08a1 1 0 0 0 1 1h3z"/></svg>

<svg id="icon-heath-shield" data-name="heath-shield" xmlns="http://www.w3.org/2000/svg" viewBox="0 0 32 32"><path d="M27.32,3.51H26A14.77,14.77,0,0,1,17.72,1L16.56.17a1,1,0,0,0-1.12,0L14.28,1A14.77,14.77,0,0,1,6,3.51H4.68a1,1,0,0,0-1,1V21.17a5.06,5.06,0,0,0,2.22,4.2l9.54,6.46a1,1,0,0,0,1.12,0l9.54-6.46a5.06,5.06,0,0,0,2.22-4.2V4.51A1,1,0,0,0,27.32,3.51Zm-1,17.66A3.07,3.07,0,0,1,25,23.72l-9,6.07L7,23.72a3.07,3.07,0,0,1-1.34-2.55V5.51H6a16.72,16.72,0,0,0,9.42-2.9l.6-.4.6.4A16.72,16.72,0,0,0,26,5.51h.3Z"/><path d="M22,13H19V9.92a1,1,0,0,0-1-1H14a1,1,0,0,0-1,1V13H10a1,1,0,0,0-1,1V18a1,1,0,0,0,1,1h3v3a1,1,0,0,0,1,1h4a1,1,0,0,0,1-1V19h3a1,1,0,0,0,1-1V14A1,1,0,0,0,22,13ZM21,17H18a1,1,0,0,0-1,1v3H15V18a1,1,0,0,0-1-1H11V15h3a1,1,0,0,0,1-1V10.92h2V14a1,1,0,0,0,1,1h3Z"/></svg>
